!!!COM:      Bach, Johann Sebastian
!!!CDT:      1685/03/31/-1750/07/28/
!!!OPR@@GER: Das wohltemperirte Clavier
!!!OVM@@GER: Band II
!!!OPR@ENG:  Well-Tempered Clavier
!!!OVM@ENG:  Book II
!!!OTL:      Prelude
!!!OKY:      B major
!!!ONM:      no. 23
!!!SCT:      BWV 892
!!!OMV:      1
**kern	**kern	**kern	**kern
*clefF4	*	*	*clefG2
*k[f#c#g#d#a#]	*	*	*k[f#c#g#d#a#]
*B:	*	*	*B:
*M4/4	*	*	*M4/4
*met(c)	*	*	*met(c)
*MM88	*MM88	*MM88	*MM88
=1-	=1-	=1-	=1-
8BB	1ryy	1ryy	16r
.	.	.	16B
8r	.	.	16c#
.	.	.	16d#
4r	.	.	16e
.	.	.	16f#
.	.	.	16g#
.	.	.	16a#
16r	.	.	8.bM
16B	.	.	.
16A#	.	.	.
16G#	.	.	16cc#
16F#	.	.	8.cc#T
16E	.	.	.
16D#	.	.	.
16C#	.	.	32b
.	.	.	32cc#
=2	=2	=2	=2
8BB	1ryy	1ryy	16dd#
.	.	.	16a#
8r	.	.	16b
.	.	.	16dd#
8.C#T	.	.	16ee
.	.	.	16a#
.	.	.	16b
32BB	.	.	16ee
32C#	.	.	.
8D#	.	.	16ff#
.	.	.	16b
16r	.	.	16gg#
16E	.	.	16ff#
8.ET	.	.	16ee
.	.	.	16dd#
.	.	.	16cc#
32D#	.	.	16b
32E	.	.	.
=3	=3	=3	=3
8F#	1ryy	1ryy	16a#
.	.	.	16e#
8A#	.	.	16f#
.	.	.	16cc#
8c#	.	.	16a#
.	.	.	16cc#
8A#	.	.	16f#
.	.	.	16cc#
8F#	.	.	16a#
.	.	.	16e#X
8A#	.	.	16f#
.	.	.	16cc#
8c#	.	.	16a#
.	.	.	16cc#
8En	.	.	16f#
.	.	.	16cc#
=4	=4	=4	=4
8D#	1ryy	1ryy	16b
.	.	.	16e#
8B	.	.	16f#
.	.	.	16dd#
8d#	.	.	16b
.	.	.	16dd#
8B	.	.	16f#
.	.	.	16dd#
8F#	.	.	16b
.	.	.	16e#X
8B	.	.	16f#
.	.	.	16dd#
8d#	.	.	16b
.	.	.	16dd#
8B	.	.	16f#
.	.	.	16dd#
=5	=5	=5	=5
8AA#	1ryy	1ryy	16cc#
.	.	.	16e#
8c#	.	.	16f#
.	.	.	16een
8e	.	.	16cc#
.	.	.	16ee
8c#	.	.	16a#
.	.	.	16ee
8A#	.	.	16cc#
.	.	.	16e#
8c#	.	.	16f#
.	.	.	16een
8A#	.	.	16cc#
.	.	.	16ee
8F#	.	.	16a#
.	.	.	16ee
=6	=6	=6	=6
8BB	1ryy	1ryy	16dd#
.	.	.	16a#
8d#	.	.	16b
.	.	.	16ff#
8f#	.	.	16dd#
.	.	.	16ff#
8d#	.	.	16b
.	.	.	16ff#
8B	.	.	16dd#
.	.	.	16a#
8d#	.	.	16b
.	.	.	16ff#
8B	.	.	16dd#
.	.	.	16ff#
8F#	.	.	16b
.	.	.	16ff#
=7	=7	=7	=7
8D#	1ryy	1ryy	16aan
.	.	.	16ee
8B	.	.	16ff#
.	.	.	16aa
8F#	.	.	16dd#
.	.	.	16ff#
8D#	.	.	16b
.	.	.	16ff#
8BB	.	.	16aan
.	.	.	16ff#
8F#	.	.	16ee
.	.	.	16dd#
8B	.	.	16ee
.	.	.	16dd#
8D#	.	.	16cc#
.	.	.	16b
=8	=8	=8	=8
8E	1ryy	1ryy	16gg#
.	.	.	16ee
8G#	.	.	16dd#
.	.	.	16cc#
8AA#	.	.	16dd#
.	.	.	16cc#
8G#	.	.	16b
.	.	.	16a#
8D#	.	.	16ff#
.	.	.	16dd#
8F#	.	.	16cc#
.	.	.	16b
8GG#	.	.	16cc#
.	.	.	16b
8F#	.	.	16a#
.	.	.	16g#
=9	=9	=9	=9
16C#	1ryy	1ryy	16ee
16D#	.	.	16dd#
16E	.	.	16cc#
16F#	.	.	16dd#
16G#	.	.	8ee
16A#	.	.	.
16B	.	.	8g#
16G#	.	.	.
8A#	.	.	16f#
.	.	.	16g#
8c#	.	.	16a#
.	.	.	16b
8A#	.	.	16cc#
.	.	.	16dd#
8F#	.	.	16ee
.	.	.	16cc#
=10	=10	=10	=10
8B	1ryy	1ryy	16dd#
.	.	.	16ee
8BB	.	.	16dd#
.	.	.	16cc#
[4BW	.	.	16b
.	.	.	16a#
.	.	.	16g#
.	.	.	16f#
16B]	.	.	16e#
16A#	.	.	16c#
16G#	.	.	16e#
16F#	.	.	16g#
16E#	.	.	[4cc#
16C#	.	.	.
16E#	.	.	.
16G#	.	.	.
=11	=11	=11	=11
*	*	*staff:10	*
*	*	*clefG2	*
*	*	*k[f#c#g#d#a#]	*
8A#	1ryy	2ryy	16cc#]
.	.	.	16b
8c#	.	.	16a#
.	.	.	16g#
8D#	.	.	16f#
.	.	.	16e#
8F#	.	.	16d#
.	.	.	16cc#
8G#	.	4ryy	16b
.	.	.	16a#
8B	.	.	16g#
.	.	.	16f#
8C#	.	8ryy	16e#X
.	.	.	16d#
8E#	.	[8c#	16c#
.	.	.	16b
=12	=12	=12	=12
16F#	1ryy	4c#]	4f# 4a#
16FF#	.	.	.
16GG#	.	.	.
16AA#	.	.	.
16BB	.	4r	4r
16C#	.	.	.
16D#	.	.	.
16E#	.	.	.
16F#	.	8r	8r
16G#	.	.	.
16F#	.	8a#	8cc#
16En	.	.	.
16D#	.	4b#	8ff#
16G#	.	.	.
16F#	.	.	8dd#
16G#	.	.	.
=13	=13	=13	=13
16C#	1ryy	8cc#	[2ee
16D#	.	.	.
16E	.	8g#	.
16C#	.	.	.
16F#	.	8an	.
16E	.	.	.
16D#	.	8a#	.
16C#	.	.	.
16BB	.	[2b	8ee]
16C#	.	.	.
16BB	.	.	8dd#
16AA#	.	.	.
16GG#	.	.	8ee
16C#	.	.	.
16BB	.	.	8ee#
16C#	.	.	.
=14	=14	=14	=14
16FF#	1ryy	8b]	[2ff#
16C#	.	.	.
16F#	.	8a#	.
16E	.	.	.
16D#	.	8b	.
16G#	.	.	.
16F#	.	8b#	.
16G#	.	.	.
16C#	.	[2cc#	8ff#]
16D#	.	.	.
16C#	.	.	8ee#
16BB	.	.	.
16AA#	.	.	8ff#
16D#	.	.	.
16C#	.	.	8ff##
16D#	.	.	.
=15	=15	=15	=15
8GG#	1ryy	16cc#]	[4gg#
.	.	16cc#	.
8D#	.	16b	.
.	.	16a#	.
8G#	.	16b	16gg#]
.	.	16r	16dd#
8BB	.	8r	16gg#
.	.	.	16ff#
8C#	.	2ryy	16ee
.	.	.	16dd#
8D#	.	.	16cc#
.	.	.	16b
8E	.	.	16a#
.	.	.	16b
8AA#	.	.	16cc#
.	.	.	16g#
=16	=16	=16	=16
8D#	1ryy	1ryy	16f##
.	.	.	16g#
8C#	.	.	16a#
.	.	.	16e
8BB	.	.	16d#
.	.	.	16c#
8FF##	.	.	16B
.	.	.	16A#
8GG#	.	.	16B
.	.	.	16d#
8EE	.	.	16g#
.	.	.	16B
8CC#	.	.	16A#
.	.	.	16g#
8DD#	.	.	16A#
.	.	.	16f##X
=17	=17	=17	=17
4GG#	1ryy	1ryy	16g#
.	.	.	16B
.	.	.	16c#
.	.	.	16d#
16r	.	.	16G#
16r	.	.	16D#
8r	.	.	16E#
.	.	.	16F##
16r	.	.	16G#
16r	.	.	16A#
8r	.	.	16B
.	.	.	16c#
4r	.	.	16B
.	.	.	16A#
.	.	.	16G#
.	.	.	16F#
=18	=18	=18	=18
8CC#	1ryy	1ryy	16E#
.	.	.	16G#
8r	.	.	16A#
.	.	.	16B
4ryy	.	.	16C#
.	.	.	16D#
.	.	.	16E#X
.	.	.	16F#
2ryy	.	.	16G#
.	.	.	16A#
.	.	.	16B
.	.	.	16c#
.	.	.	16d#
.	.	.	16e#X
.	.	.	16f#
.	.	.	16g#
=19	=19	=19	=19
8FF#	1ryy	1ryy	16a#
.	.	.	16f#
8r	.	.	16e#
.	.	.	16d#
16r	.	.	16c#
16r	.	.	16B
8r	.	.	16A#
.	.	.	16G#
16r	.	.	16F#
16r	.	.	16G#
8r	.	.	16A#
.	.	.	16B
4r	.	.	16A#
.	.	.	16G#
.	.	.	16F#
.	.	.	16En
=20	=20	=20	=20
8BBB	1ryy	1ryy	16D#
.	.	.	16F#
8r	.	.	16G#
.	.	.	16An
4ryy	.	.	16BB
.	.	.	16C#
.	.	.	16D#
.	.	.	16E
2ryy	.	.	16F#
.	.	.	16G#
.	.	.	16An
.	.	.	16B
.	.	.	16c#
.	.	.	16d#
.	.	.	16e
.	.	.	16f#
=21	=21	=21	=21
*	*staff:3	*	*
*	*clefF4	*	*
*	*k[f#c#g#d#a#]	*	*
8EE	4ryy	1ryy	16g#
.	.	.	16e
8r	.	.	16d#
.	.	.	16c#
4ryy	16r	.	16B
.	16An	.	16r
.	16G#	.	8r
.	16F#	.	.
2ryy	16E	.	16r
.	16F#	.	16d#
.	16G#	.	16e
.	16An	.	16f#
.	16G#	.	16e
.	16F#	.	16d#
.	16E	.	16c#
.	16D#	.	16B
=22	=22	=22	=22
8FF#	8C#	1ryy	16A#X
.	.	.	16c#
8r	8r	.	16d#
.	.	.	16e
4ryy	2.ryy	.	16F#
.	.	.	16G#
.	.	.	16A#
.	.	.	16B
2ryy	.	.	16c#
.	.	.	16d#
.	.	.	16e
.	.	.	16f#
.	.	.	16g#
.	.	.	16a#
.	.	.	16b
.	.	.	16cc#
=23	=23	=23	=23
8BB	1ryy	1ryy	16dd#
.	.	.	16b
8r	.	.	16a#
.	.	.	16g#
16r	.	.	16f#
16e	.	.	16r
16d#	.	.	8r
16c#	.	.	.
16B	.	.	8r
16d#	.	.	.
16F#	.	.	8ff#
16d#	.	.	.
.	.	.	16eeQ
16B	.	.	8dd#
16d#	.	.	.
.	.	.	16cc#Q
16F#	.	.	8b
16d#	.	.	.
=24	=24	=24	=24
*	*	*staff:2	*
16G#	1ryy	8r	[2bb
16B	.	.	.
16D#	.	8gg#	.
16B	.	.	.
16G#	.	8dd#	.
16B	.	.	.
16D#	.	8ff#	.
16B	.	.	.
16G#	.	8ee#	8bb]
16c#	.	.	.
16E#	.	8r	8gg#
16c#	.	.	.
.	.	.	16ff#Q
16G#	.	4r	8ee#X
16c#	.	.	.
.	.	.	16dd#Q
16E#	.	.	8cc#
16c#	.	.	.
=25	=25	=25	=25
16F#	1ryy	8r	[2aa#
16A#	.	.	.
16C#	.	8ff#	.
16A#	.	.	.
16F#	.	8cc#	.
16A#	.	.	.
16C#	.	8een	.
16A#	.	.	.
16F#	.	8dd#	8aa#]
16B	.	.	.
16D#	.	8r	8ff#
16B	.	.	.
.	.	.	16eeQ
16F#	.	4r	8dd#
16B	.	.	.
.	.	.	16cc#Q
16D#	.	.	8b
16B	.	.	.
=26	=26	=26	=26
16G#	1ryy	8r	16ee#
16c#	.	.	16ff#
16E#	.	16b	4gg#
16c#	.	16a#	.
16G#	.	4b	.
16c#	.	.	.
16E#	.	.	8cc#
16c#	.	.	.
16A#	.	8r	32ff##
.	.	.	32gg#
16d#	.	.	16aa#
16F##	.	16a#	4cc#
16d#	.	16g#	.
16A#	.	8a#	.
16d#	.	.	.
16F##	.	8cc#	8aa#
16d#	.	.	.
=27	=27	=27	=27
16B	1ryy	8cc#	8aa#
16d#	.	.	.
16G#	.	8b	8gg#
16d#	.	.	.
16B	.	8dd#	8gg#
16d#	.	.	.
16G#	.	8dd#	8ff#
16d#	.	.	.
16B#	.	[2dd#	4.ff#T
16d#	.	.	.
16G##	.	.	.
16d#	.	.	.
16B#	.	.	.
16d#	.	.	.
16G##	.	.	16ee#
16d#	.	.	16ff#
=28	=28	=28	=28
2A#	1ryy	16dd#]	2ee#
.	.	16dd#	.
.	.	16cc##	.
.	.	16b#	.
.	.	16cc##	.
.	.	16a#	.
.	.	16bn	.
.	.	16g#	.
16r	.	2ryy	16e#X
16D#	.	.	16f#
16E#	.	.	16g#
16F#	.	.	16a#
16E#	.	.	16g#
16D#	.	.	16f#
16C##	.	.	16e#
16BB#	.	.	16d#
=29	=29	=29	=29
*	*staff:11	*	*
8AA#	8E#	1ryy	16c##
.	.	.	16e#
8r	8r	.	16f#
.	.	.	16g#
4ryy	2.ryy	.	16A#
.	.	.	16B#
.	.	.	16c##X
.	.	.	16d#
2ryy	.	.	16e#X
.	.	.	16f#
.	.	.	16g#
.	.	.	16a#
.	.	.	16b#X
.	.	.	16cc##X
.	.	.	16dd#
.	.	.	16ee#X
=30	=30	=30	=30
8D#	1ryy	1ryy	16ff#
.	.	.	16dd#
8r	.	.	16a#
.	.	.	16f#
4r	.	.	16d#
.	.	.	16c#
.	.	.	16B#
.	.	.	16A#
8G#	.	.	16B#
.	.	.	16d#
8r	.	.	16g#
.	.	.	16b#X
4r	.	.	16dd#
.	.	.	16ff#
.	.	.	16een
.	.	.	16dd#
=31	=31	=31	=31
8C#	8G#	1ryy	16ee
.	.	.	16cc#
8r	8r	.	16g#
.	.	.	16e
4r	2.ryy	.	16c#
.	.	.	16B
.	.	.	16A#
.	.	.	16G#
8F#	.	.	16A#
.	.	.	16c#
8r	.	.	16f#
.	.	.	16a#
4r	.	.	16cc#
.	.	.	16ee
.	.	.	16dd#
.	.	.	16cc#
=32	=32	=32	=32
8BB	8F#	1ryy	16dd#
.	.	.	16b
8r	8r	.	16f#
.	.	.	16d#
4r	2.ryy	.	16B
.	.	.	16An
.	.	.	16G#
.	.	.	16F#
8E#	.	.	16G#
.	.	.	16B
8r	.	.	16dn
.	.	.	16e#
4r	.	.	16g#
.	.	.	16b
.	.	.	16a#
.	.	.	16g#
=33	=33	=33	=33
8F#	1ryy	1ryy	16a#
.	.	.	16d#
8FF#	.	.	16en
.	.	.	16cc#
8AA#	.	.	16a#
.	.	.	16cc#
8C#	.	.	16e
.	.	.	16cc#
8F#	.	.	16a#
.	.	.	16d#
8A#	.	.	16e
.	.	.	16cc#
8c#	.	.	16a#
.	.	.	16cc#
8A#	.	.	16e
.	.	.	16cc#
=34	=34	=34	=34
8B	1ryy	1ryy	16f#
.	.	.	16c#
8F#	.	.	16dn
.	.	.	16cc#
8Dn	.	.	16f#
.	.	.	16cc#
8F#	.	.	16d
.	.	.	16cc#
8D	.	.	16f#
.	.	.	16c#
8BB	.	.	16d
.	.	.	16b
8D	.	.	16f#
.	.	.	16b
8F#	.	.	16d
.	.	.	16b
=35	=35	=35	=35
*	*staff:7	*	*
8FF#	8G#	1ryy	16dn
.	.	.	16A#
8FF#	8G#	.	16B
.	.	.	16e#
8FF#	8G#	.	16d
.	.	.	16e#
8FF#	8G#	.	16B
.	.	.	16e#
8FF#	8G#	.	16d
.	.	.	16A#
8FF#	8G#	.	16B
.	.	.	16e#
8FF#	8G#	.	16d
.	.	.	16e#
8FF#	8G#	.	16B
.	.	.	16e#
=36	=36	=36	=36
*	*	*staff:8	*
[2FF#	[2F#	4d	16dn
.	.	.	16A#
.	.	.	16B
.	.	.	16f#
.	.	8A#	16c#
.	.	.	16f#
.	.	8G#	16B
.	.	.	16e#
16FF#]	8F#]	8A# 8c#	8f#
16GG#	.	.	.
16AA#	8r	8r	8r
16BB	.	.	.
16C#	4r	4r	4r
16D#X	.	.	.
16En	.	.	.
16C#	.	.	.
=37	=37	=37	=37
16D#	1ryy	1ryy	16r
16BB	.	.	16b
16C#	.	.	16a#
16D#	.	.	16g#
16E	.	.	16f#
16F#	.	.	16e
16G#	.	.	16d#
16A#	.	.	16c#
8B	.	.	16d#
.	.	.	16b
8r	.	.	16cc#
.	.	.	16dd#
8.c#T	.	.	16ee
.	.	.	16ff#
.	.	.	16gg#
32B	.	.	16aa#
32c#	.	.	.
=38	=38	=38	=38
8d#	1ryy	1ryy	16bb
.	.	.	16ff#
8r	.	.	16dd#
.	.	.	16b
8.e#t	.	.	16cc#
.	.	.	16bb
.	.	.	16aan
32d#	.	.	16gg#
32e#	.	.	.
16f#	.	.	8aa
16en	.	.	.
16d#	.	.	8ff#
16c#	.	.	.
16B	.	.	8dd#
16An	.	.	.
16G#	.	.	8aa
16F#	.	.	.
=39	=39	=39	=39
8E	1ryy	1ryy	16gg#
.	.	.	16ee
8d#	.	.	16b
.	.	.	16g#
8c#	.	.	16a#X
.	.	.	16gg#
8A#X	.	.	16ff#
.	.	.	16ee
16d#	.	.	8ff#
16c#	.	.	.
16B#	.	.	8dd#
16A#	.	.	.
16G#	.	.	8b#
16F#	.	.	.
16E	.	.	8ff#
16D#	.	.	.
=40	=40	=40	=40
8C#	1ryy	1ryy	16ee
.	.	.	16cc#
8Bn	.	.	16g#
.	.	.	16e
8A#	.	.	16f#
.	.	.	16ee
8F#	.	.	16dd#
.	.	.	16cc#
8BB	.	.	16dd#
.	.	.	16b
8D#	.	.	16a#
.	.	.	16g#
8E#	.	.	16a#
.	.	.	16g#
8G#	.	.	16f#
.	.	.	16e#
=41	=41	=41	=41
8AA#	1ryy	1ryy	16cc#
.	.	.	16a#
8C#	.	.	16g#
.	.	.	16f#
8D#	.	.	16g#
.	.	.	16f#
8F#	.	.	16e#
.	.	.	16d#
8GG#	.	.	16b
.	.	.	16g#
8BB	.	.	16f#
.	.	.	16e#X
8C#	.	.	16f#
.	.	.	16e#
8E#	.	.	16d#
.	.	.	16c#
=42	=42	=42	=42
16FF#	1ryy	1ryy	16a#
16GG#	.	.	16g#
16AA#	.	.	16f#
16BB	.	.	16g#
16C#	.	.	8a#
16D#	.	.	.
16En	.	.	8c#
16C#	.	.	.
8D#	.	.	16B
.	.	.	16c#
8F#	.	.	16d#
.	.	.	16e
8D#	.	.	16f#
.	.	.	16g#
8BB	.	.	16an
.	.	.	16f#
=43	=43	=43	=43
8E	1ryy	1ryy	16g#
.	.	.	16an
8EE	.	.	16g#
.	.	.	16f#
[4E	.	.	16e
.	.	.	16d#
.	.	.	16c#
.	.	.	16B
8E]	.	.	16A#
.	.	.	16f#
8D#	.	.	16B
.	.	.	16f#
8C#	.	.	16e
.	.	.	16B
8F#	.	.	16A#
.	.	.	16e
*	*	*	*clefF4
=44	=44	=44	=44
8BB	1ryy	1ryy	16d#
.	.	.	16c#
8C#	.	.	16B
.	.	.	16A#
8D#	.	.	16B
.	.	.	16d#
8BB	.	.	16f#
.	.	.	16An
8EE	.	.	16G#
.	.	.	16f#
8GG#	.	.	16e
.	.	.	16d#
8EE	.	.	16c#
.	.	.	16d#
8CC#	.	.	16e
.	.	.	16B
=45	=45	=45	=45
8FF#	1ryy	1ryy	16A#
.	.	.	16B
8EE	.	.	16c#
.	.	.	16G#
8DD#	.	.	16F#
.	.	.	16E
8AA#	.	.	16D#
.	.	.	16C#
8BB	.	.	16D#
.	.	.	16F#
8GG#	.	.	16B
.	.	.	16D#
8EE	.	.	16C#
.	.	.	16B
8FF#	.	.	16E
.	.	.	16A#
=46	=46	=46	=46
*	*staff:1	*staff:2	*
*	*	*clefF4	*
8BBB 8BB	8b#	8F#	8B
8r	8ryy	8ryy	8r
4r	4ryy	4ryy	4r
2r	2ryy	2ryy	2r
==	==	==	==
*-	*-	*-	*-
!!!AFR:  prelude
!!!EFL:  93/96
!!!END:  1994/02/17/
!!!VID:  5805117 Bach, BWV 892-01
!!!AST:  Baroque
!!!OCY:  Deutschland
!!!ODT:  1742///
!!!PDT:  1801///
!!!EED:  Walter Hewlett
!!!ENC:  Walter Hewlett
!!!YOR:  Bach Gesellschaft Edition xiv
!!!AFT:  enhanced SCORE
!!!RDT:  2011/10/07/ by Andreas Kornstaedt using massScr2hmd
!!!SCA1: Thematisch-systematisches Verzeichnis der musikalischen Werke 
!!!SCA2: Johann Sebastian Bach: Bach-Werke-Verzeichnis (Schmieder)
!!!YEC1: Copyright 1994, 2000 Center for Computer Assisted Research 
!!!YEC2: in the Humanities
!!!YEM1: Rights to all derivative editions reserved.
!!!YEM2: Refer to licensing agreement for further details.
!!!YEN:  United States of America
!!!ref:  @{OTL}, @{SCT}
!!muse2ps: T^@{OTL} @{ONM} in @{OKY}^C^J.S. Bach\n@{SCT}-@{OMV}^
!!muse2ps: u^@{OPR@ENG}, @{OVM@ENG}^j
